x = 299, y = 335, rule = B3/S23
26bo17bo5b2o$26bobo13b3o5b2o$9bo17bobo4b2o5bo$9b2o16bo2bo3b2o5b2o$4b2o
4b2o15bobo21bo$2o2b2o4b3o13bobo21bobo$2o2b2o4b2o7bobo4bo12bo9bo3bo$9b
2o9b2o17bo9b5o$9bo10bo17bobo7b2o3b2o$37b2ob2o7b5o43b2o$36bo5bo7b3o44b
2o$39bo11bo$36b2o3b2o$27bo$28b2o$27b2o10bo$37b2o$11b2o6b2o76b3o$10bo2b
o4bo2bo14bo7b2o50bo3bo$9b6o2b6o16bo4bobo36b3o$10bo2bo4bo2bo15bobo5b3o
36bo10bo5bo$11b2o6b2o13bo2bo8b3o35bo10b2o3b2o$35b2o8b3o35b3o$35bo8bobo
$44b2o37b3o12bo$83b3o11bob2o$97bo$44b2o19b2o16b3o11bo3bo$45bo19bo18bo
13bo2bo$45bobo7bobo5bobo18bo13b5o$36bo9b2o6bo2bo5b2o18b3o12b5o$37b2o
14b2o42b2o3b2o$36b2o13b2o3bo41b5o$53b2o36bobo5b3o$54bo2bo25bo7b2o7bo$
55bobo23b2o9bo$82b2o40b2o$43b2o79b2o$42bobo$44bo$125bo$124bobo$123bo3b
o$100b2o21b5o$100b2o20b2o3b2o$92bo30b5o$90bobo18bo12b3o$88b2o20b3o12bo
$88b2o19b5o$88b2o$47bobo40bobo7b2o$46bo2bo31b3o8bo7bobo23bo$35b3o7b2o
6b2o47bo20b2o$43b2o3bo3bo2bo25bobo18b2o19b3o$12bo2bob2obo2bo21b2o6b2o
25b5o39b2o$11b2o2bo4bo2b2o21bo2bo3b2o24b2o3b2o23b5o10bo$12bo2bob2obo2b
o23bobo3bo25b2o3b2o24b3o10bobo$52bobo36b2o18bo11b2o$41bo10bobo36bobo$
40bobo10bo28bo3b2o6bo7b2o$39bo3bo37bobobo2bo2bo2bo7b2o20b2obob2o$40b3o
38bobo2b2o6bo$26b3o9b2o3b2o5b2o3b2o25bo8bobo23bo6bo5bo$28bo21bobobobo
34b2o22b2o$27bo23b5o60b2o7b2ob2o$52b3o72bo$13b2o38bo57bo$13b2o4bo88b2o
2bo$2b2o6b2o6b5ob2o81bo$2b2o5b3o5bo2b2o4bo80bo2b2o$10b2o5b2o8bo80bobo
16b2o$13b2o4bo7bo8b2o5b2o64bo17b2o$13b2o12bo8b2o5bo74b2o$26bo17b3o5b2o
64b2o$24b2o20bo5b2o56b5o6b2o$108bo6bo5b3o$38b2o68bo4b2o6b2o$38b2o78b2o
7b2o$118b2o7bobo$129bo$106b2o3b2o16b2o$38bo68b5o$37b3o56bobo9b3o$36bo
3bo47bobo6b2o10bo$35bob3obo47b2o6bo24bo$36b5o48bo31bobo$121b2obo4b2o$
52bo68b2ob2o3b2o$51b3o38bobo26b2obo$50b2ob2o38b2o26bobo$49b3ob3o23b2o
12bo28bo$35b2o2bo9b3ob3o23b2o$37bobo9b3ob3o$39b2o8b3ob3o$40b2o8b2ob2o
22bo$38bob2o9b3o24bo18bobo$38b3o11bo25bo19b2o$98bo2$33b2o3b2o36b2o3b2o
$36bo42bo$33bo5bo21bo14bo5bo$34b2ob2o6bobo12b3o14b2ob2o$35bobo8b2o11b
2obo15bobo$36bo9bo12b3o17bo$36bo23b2o17bo3$75b2o$53bo20bo3bo$35b2o17b
2o17bo5bo$35b2o16b2o18bo3bob2o$44b2o27bo5bo176b2o$43bobo28bo3bo177b2o$
42b3o4b2o11b3o10b2o$41b3o4bo2bo2bo6bo3bo$42b3o4b2ob2obo133b2o$35b2o6bo
bo6bo3bo3bo5bo122b2o$34bobo7b2o6b5o3b2o3b2o190bo$34bo16b2o3b2o197b2ob
2o$33b2o17b5o130bo$53b3o7bo124bo65bo5bo$54bo7bobo123bo$62bobo178bo10b
2obob2o$43bo18bo140bo39bo$41bobo18bo123b2o3b2o9bobo37bobo$33b2o4b2o21b
o2bo123bo53bo15bo$33b2o4b2o22b2o121bo5bo50bo12bo2bo$39b2o146b2ob2o10b
3o38bo15bo$41bobo144bobo11b3o38bo11b2o$43bo145bo13bo38bobo10bo$189bo
53bo11bobo$243bo12b2o$203bo$149bo52b3o$63b3o11b3o61bo8b2o50b3o51b2o3b
2o$62bo3bo75b2o5b2o105bo5bo$61bo5bo8bo3bo60b2o48bobo51b2o$61b2obob2o8b
o3bo111b2o8bobo39bo6bo5bo3bo$186b3o3bo10bo41b3o3bo6b3o$77b3o25b2o38bo
39bo3bo50b2o6bo3bo$64bo40b2o39b2o36bo5bo49bobo5bo3bo$63bobo79b2o37b2ob
ob2o50bo6bo3bo$63bobo11b3o168b2ob2o$63b2o134bo$62bo13bo3bo24bo81bo12b
2o$61b3o12bo3bo23b3o79bobo10b2o7bobo48b2o$60bo3bo38bo3bo42bo35bobo20b
2o48b2o$59bob3obo11b3o22bob3obo42b2o34bo21bo39b2o$60b5o4bo33b5o42b2o
95bo3bo$70b2o114b2o58bo5bo$69b2o7bobo105b2o57b2obo3bo$79b2o111bo48bo4b
o5bo$79bo111bobo46bobo4bo3bo7b2o$189b2o3bo44bo3bo5b2o8bobo$189b2o3bo
45b3o18bo$189b2o3bo43b2o3b2o16b2o$186b2o3bobo$98b2o85bobo4bo$89bo8b2o
85bo$61b2o25bo5bo6b2o81b2o64bobo$61b2o25bob2o3bo5b3o98b2obob2o36bo4bo
2bo$69bo19b6o6b2o81b2o49bo10b2o5b2o6b2o$69b4o17b4o4b2o85bo16bo5bo24b3o
5bo9bo3b2o4b2o$70b4o24b2o85bobo5b2o37bo8bo11b2o$70bo2bo112b2o5b2o8b2ob
2o24b2o16bo2bo$70b4o12b2obob2o103b2o7bo44bobo$61b2o6b4o123b3o$60bobo6b
o16bo5bo103b2o$60bo18b3o111b2o$59b2o17bo3bo4b2ob2o101b2o34b3o$89bo138b
2ob2o$77bo5bo144b2ob2o$77b2o3b2o144b5o$71b2o154b2o3b2o$70bo3bo$59b2o8b
o5bo4bo8b2o$59b2o8bo3bob2o2bobo7b2o$69bo5bo3bobo$70bo3bo5bo$71b2o$232b
2o$232bo$233b3o$235bo28$111b2o20bo$113bo17b3o$100b2o12bo8b2o5bo$100b2o
4bo7bo8b2o5b2o$97b2o5b2o8bo$89b2o5b3o5bo2b2o4bo$89b2o6b2o6b5ob2o$100b
2o4bo$100b2o2$114bo$115bo$113b3o9b2o3b2o63bo17bobo$127b3o64b2o15b3ob3o
$126bo3bo47b2o13b2o4b2o2b2o5bo7bo$127bobo48b3o11b3o4b2o2b2o5b2o5b2o$
128bo15b2o34b2obo9b2o4b2o$118b3o23bo35bo2bo10b2o12bo$99bo2bob2obo2bo7b
o15bobo5bobo35b2obo11bo11b3o$98b2o2bo4bo2b2o7b3o11bo2bo5b2o27b2o5b3o
10bo14bo3bo$99bo2bob2obo2bo21b2o19b3o14bobo5b2o9bobo13bob3obo31b2o$
130b2o3bo10b2o7bo14bo19b2o14b5o6b2o3b2o18b2o$132b2o11bobo6bo14b2o46bo
5bo20bo$133bo2bo10bo$134bobo81bo3bo48bo$219b3o47b3o$198bo69bo$199bo68b
2o$116bo80b3o$116b3o$119bo58b2o3bo2bo3b2o22bo$118b2o32b2o24b5o4b5o22b
4o$153b2o23b2o3bo2bo3b2o23b4o$121bo30bo62bo2bo$120bobo92b4o46b3o$119bo
3bo90b4o13b2o13b2o16bo3bo$120b3o23bo53bo13bo14bo3bo12bobo14bo5bo$118b
2o3b2o21b2o50bobo27bo5bo11bo16bo5bo$145bobo51b2o22b2o2b2obo3bo31bo$
207bo15b2o3bo5bo29bo3bo17b2o$206bobo20bo3bo31b3o9bo8b2o$204b2o3bo21b2o
10b3o20bo9bo5bo6b2o$204b2o3bo9b2o21bo3bo29bob2o3bo5b3o5b2o$204b2o3bo9b
2o47b2o7b6o6b2o6b2o$53b2o151bobo32bo5bo20bo9b4o4b2o$53b2o152bo15b2o16b
2o3b2o21b3o14b2o$224bo46bo$118b2o104bobo7bo39b2obob2o$119bo84bo20b2o4b
4o$116b3o83b2ob2o23b4o40bo5bo16b2o$116bo113bo2bo63bo$52b3o146bo5bo22b
4o4b2o2b2o31b2ob2o5bo9bobo$231b4o5bo36bo6bobo8b2o$52bobo11b3o132b2obob
2o26bo47b2o3bo$51b5o10b3o156b2o55b2o3bo$50b2o3b2o10bo127bo29b2o55b2o3b
o$50b2o3b2o10bo126b2o45b2o41bobo$67bo125b2o4b2o3bo38bo41bo$66bobo114b
2o7b3o4b2o2bobo31b2o3bo52b2o$52b2o129b2o8b2o4b2o2bobo20bo9b2o40b2o15b
2o$51b2ob2o138b2o8bo20b3o9bob2o34b4obo$52bo2bo10bobo126bo28bo3bo9b2o
39bo$52bo14bo155bob3obo$55bo11bo108b2o46b5o$53b2o12bo99bo8bobo$66b3o
97bobo2b2o6bo$66b3o97bobobo2bo2bo2bo7b2o$48b2o3b2o112bo3b2o6bo7b2o52b
3o41b3o6b3o$49b5o5bo116bobo50b3o53bo7bo3bo$50b3o7b2o114b2o53bo8bo3bo
41bo5bo5bo$51bo7b2o103b2o3b2o59bo9bo3bo34bo12b2obob2o$164b2o3b2o107bob
o$131bo33b5o71b3o$129b4o33bobo18b2o103bo$123b2o3bobob2o53bo90b3o11b2o$
123b2o2bo2bob3o17b2o12b3o8bo7bobo53b3o34b3o$66bo3bo57bobob2o10bo6b2o
22bobo7b2o92bo11b2obo$67b2o2bo57b4o11bo8bo19b2o52b3o10bo3bo46b2o2bo$
50b2o15b2o2bo59bo11bobo27b2o51bo3bo9bo3bo47b4o$50b2o90b2ob2o26b2o50bo
5bo47bo$61bo79bo5bo27bobo47b2obob2o9b3o34b3o$60bobo81bo32bo100b3o9b2o
3b2o$60b2obo77b2o3b2o37b2o106bo$60b2ob2o35bo64b3o17b2o41bo61bo5bo$60b
2obo36b2o125bobo48bobo10b2ob2o$50b2o8bobo36bobo43bo23b2o56bobo49bo12bo
bo$49bobo9bo6b3o74bo82bo64bo$49bo17b2ob2o74bo146bo$48b2o17b2ob2o79bo
76b2o$67b5o21b2o56bobo74b2o$66b2o3b2o21b2o56bobo4b2o$93bo49b2o7bo2bo3b
2o16bo$59b2o91bobo21b2o7bo106b2o$57bo2bo90bobo22bobo5b3o105b2o$48b2o6b
o7b6o81bo31b5o$48b2o6bo6bo6bo111b2o3b2o$56bo7b2o4bo97b3o12b5o$57bo2bo
7b2o85b2o12bo13b5o$59b2o39bobo51b3o12bo13bo2bo$90b2o8bo2bo47bob2o5b2o
6b3o11bo3bo$89bo13b2o46bo2bo4bo2bo19bo$89b2o3bo6bo3b2o12bo2bob2obo2bo
20bob2o5b2o6b3o11bob2o$66bo2bob2obo2bo16bo8b2o14b4ob2ob4o9b2o12b3o11b
3o12bo$65b2o2bo4bo2b2o14bo6bo2bo15bo2bob2obo2bo7bobo14b2o3bo$66bo2bob
2obo2bo22bobo34bob2o18bobo6b3o$159bobo7bo10b2o3b2o$84b2o61b3o10bo8bo
10bo5bo$85b2o60b3o18b3o$84bo61bo3bo30bo3bo$107bo25b2o22b2obob2o18b3o$
106b3o25b2o9b2o3b2o5bo5bo$105b5o23bo24bo3bo$104bobobobo48b3o$77bo14b2o
3b2o5b2o3b2o9b2o$65b2o10b2o15b3o21bo2bo$65b2o9bobo14bo3bo19bo7b3o3bo$
56b2o3bo6b2o12b2o10bobo20bo6bo3b5o49b2o$56bobo3bo5b3o10bo3bo9bo21bo7bo
3b2ob2o48b2o$57b5o6b2o10bo5bo24b2o5bo2bo3bo3b2ob3o8b2o5b2o$58b3o4b2o
13bo3bob2o2b2o5b2o5b2o4bobo7b2o5b4ob2o9b2o5bo$65b2o13bo5bo3b2o5bo7bo4b
o18b4o18b3o5b2o$81bo3bo12b3ob3o4b2o20bo21bo5b2o$82b2o16bobo!
